X: 6475
T: Cat In The Cupboard, The
R: jig
M: 6/8
K: Dmajor
f|ecA AGE|FDD D2f|~g3 efd|cA^G ABc|
dAd ede|fdF GFG|AdB cAG|EDC D2f|
ecA AGE|FDD D2f|~g3 efd|cA^G ABc|
dAd ede|fdf ~g3|a^ga b=ge|edc d2|
|:e|fdd ede|f2A ABd|~e3 ABd|efe ede|
fdd ede|fba fed|~e3 age|edc d2:|

